X:1
T:MARSEILLES HYMN
T:MARSEILLES HYMN
T:La Marseillaise
T:Claude Joseph Rouget de Lisle (1792)
C:Claude Joseph Rouget de Lisle (1792)
%%score 1 2 3
L:1/8
M:4/4
K:C
V:1 treble 
V:2 treble 
V:3 bass 
V:1
 G>G | c2 c2 d2 d2 | g3 e ccc_B | A2 f4 dB | c4 z2 cd | e2 e2 e2 fe | ed d2 z2 de | f2 f2 f2 gf | %8
 e4 z2 g>g | g2 ec g2 ec | G4 z GGG | d4 f2 dB | c2 c2 z2 _B2 | A2 AA c2 Bc | d4 z2 z d | %15
 _e3 e defe | d4 z2 _ed | c2 c2 c2 dc | cB B4 z g | g4 gd_ec | d4 z2 z g | g4 gd_ec | d4 z2 G2 | %23
 c6 c2 | e8 | f4 g2 a2 | d6 z a | g4 gefd | c6 | %29
V:2
 z2 | E2 E2 G2 G2 | d3 c EEED | F2 d4 FD | e4 z2 EG | c2 c2 c2 dc | cB B2 z2 Bc | d2 d2 d2 ed | %8
 A4 z2 z2 | e2 cG e2 cG | E4 z EEE | B4 d2 B2 | E2 E2 z2 [G_B]2 | F2 FF G2 GA | B4 z2 z B | %15
 c3 c Bcdc | B4 z2 cB | A2 A2 A2 A2 | G2 G4 z z | B4- B4 | B4 z2 z z | B4 z2 z2 | B4 z2 z2 | %23
 E6 E2 | c8 | d4 e2 f2 | B6 z f | e4 ecdB | E6 | %29
V:3
 z2 | C,2 C,2 G,,2 G,,2 | C,4 C,2 C,2 | F,4 G,2 G,,2 | C,4 z2 z2 | C,2 C,2 C,2 D,2 | %6
 G,,2 G,,2 z2 z2 | F,2 F,2 F,2 G,2 | C,4 z2 z2 | C,2 z2 C,2 z2 | G,,4 z C,3 | F,4 G,,4 | %12
 C,2 C,2 z2 z2 | [C,G,]2 C,2 C,2 C,2 | G,,4 z2 z G,, | C,4 C,4 | G,,4 z2 z2 | C,4 C,2 C,2 | %18
 G,,6 z2 | G,4 G,2 G,2 | G,,4 z2 z2 | C,4 C,2 C,2 | G,,4 z2 z2 | C,6 C,2 | C,8 | D,4 E,2 F,2 | %26
 G,,6 z2 | C,4 C,2 G,,2 | C,6 | %29

